X:1
T:Title
%%score { ( 1 3 ) | ( 2 4 ) }
L:1/8
Q:1/4=100
M:6/8
K:Ab
V:1 treble nm="Grand Piano"
V:3 treble 
V:2 bass 
V:4 bass 
V:1
 [CE]2 [CE] [EA]2 [EA] | B>AB c>B[EA] | [FA]2 F E2 [Ec] | [EB]>[=DF][A,DG] [G,E]3 | %4
w: C.~K.~Langley * * *||||
 [A,CE]2 [A,CE] [A,EA]2 [A,EA] | B>AB c>B[EA] | ABA [FA]>GF | EAB [CA]3 | B2 G E2 [EG] | %9
w: |||||
 [EA]2 B c>BA | [A,FA]2 [A,DF] [A,E]2 [CFA] | [B,EG]2 [A,=DF] [G,E]3 | %12
w: |||
 [A,CE]2 [A,CE] [A,EA]2 [A,EA] | B>AB c>B[EA] | z3 z2 A | A2 G [CA]3 |] %16
w: ||||
V:2
 [A,,A,]2 [A,,A,] [C,A,]2 [C,A,] | .[E,E]3 z3 | [D,A,]2 [D,A,D] [C,A,]2 [A,,A,] | %3
 B,,->[B,,B,]B,, z2 D | A,,2 A,, C,2 C, | .G,3 z3 | [D,A,]2 [D,A,] z z/ E/[D,A,D] | .[E,A,]3 z3 | %8
 [E,G,E]2 [E,B,E] [E,G,]2 [D,B,] | [C,A,]2 [E,G,E] [A,E]>[E,G,D][F,A,C] | D,2 D, C,2 A,, | %11
 B,,2 B,, z2 D | A,,2 A,, C,2 C, | .G,3 z3 | [D,A,]2 [D,A,D] [C,A,]2 [A,C]/B,/ | %15
 [E,CE]2 [E,B,D] [A,,A,]3 |] %16
V:3
 x6 | z3 .E3 | x6 | x6 | x6 | z3 .E3 | .F3 z3 | x6 | x6 | x6 | x6 | x6 | x6 | z3 .E3 | %14
 [FA]2 F E2 z/ =D/ | x6 |] %16
V:4
 x6 | G,>F,[E,G,E] [A,,A,]>[B,,G,][C,A,] | x6 | .G,3 E,3 | x6 | %5
 [E,E]->[E,F,E][E,G,E] [A,,A,]>[B,,G,][C,A,] | z3 .[D,A,]3 | C-[E,C][E,D] [A,,E,]3 | x6 | x6 | x6 | %11
 z3 E,3 | x6 | [E,E]->[E,F,E][E,G,E] [A,,A,]>[B,,G,][C,A,] | z3 z2 F, | x6 |] %16

